X: 8504
T: Creel Of Turf, The
R: jig
M: 6/8
K: Edorian
BEE {c}BAG|FAA AFD|BEE BEE|AGF ~E3|
BEE {c}BAG|FAA ABc|~d3 ~B3|AGF ~E3||
Bee ede|fdd dBA|Bee ede|fdc ~d3|
Bee ede|~f3 dBA|~d3 ~B3|AGF ~E3||

